en/guide/_images/other/icons/multiply.svg

<svg width="12" height="12" viewBox="0 0 12 12" fill="none" xmlns="http://www.w3.org/2000/svg">
<g clip-path="url(#clip0_39787_428205)">
<path d="M10.2347 2.81511C10.3812 2.66866 10.3812 2.43123 10.2347 2.28478L9.71515 1.76511C9.56867 1.61866 9.33122 1.61866 9.18474 1.76511L5.99994 4.94994L2.81511 1.76511C2.66866 1.61866 2.43123 1.61866 2.28478 1.76511L1.76511 2.28478C1.61866 2.43123 1.61866 2.66866 1.76511 2.81511L4.94994 5.99994L1.76511 9.18474C1.61866 9.33122 1.61866 9.56867 1.76511 9.71515L2.28478 10.2347C2.43123 10.3812 2.66866 10.3812 2.81511 10.2347L5.99994 7.04994L9.18474 10.2347C9.33122 10.3812 9.56867 10.3812 9.71515 10.2347L10.2347 9.71515C10.3812 9.56867 10.3812 9.33122 10.2347 9.18474L7.04994 5.99994L10.2347 2.81511Z" fill="#0069FF"/>
</g>
<defs>
<clipPath id="clip0_39787_428205">
<rect width="12" height="12" fill="white"/>
</clipPath>
</defs>
</svg>

<svg xmlns="http://www.w3.org/2000/svg" width="12" height="12" fill="none" viewBox="0 0 12 12"><g clip-path="url(#a)"><path fill="#0069FF" d="M10.235 2.815a.375.375 0 0 0 0-.53l-.52-.52a.375.375 0 0 0-.53 0L6 4.95 2.815 1.765a.375.375 0 0 0-.53 0l-.52.52a.375.375 0 0 0 0 .53L4.95 6 1.765 9.185a.375.375 0 0 0 0 .53l.52.52a.375.375 0 0 0 .53 0L6 7.05l3.185 3.185a.375.375 0 0 0 .53 0l.52-.52a.375.375 0 0 0 0-.53L7.05 6l3.185-3.185Z"/></g><defs><clipPath id="a"><path fill="#fff" d="M0 0h12v12H0z"/></clipPath></defs></svg>
